X:253
T: Rizi yueguo yuexiangtian
N: C1749
O: China, Liaoning Changhai
S: III, 249]
R: Xiaodiao, Youya diao]
M: 2/4
L: 1/16
K: C
A4A2c2 | E2G2A4 | c2dBAcA2 | A8
d4AcA2 | c2d2gege | e2c2d4- | d8
e4d4 | e8 | A4c2d2 | e4g4
A2c2d2e2 | A4e2d2 | c2A2G2BA | A8
A4A2c2 | E8 | A4A2c2 | d8
g4e2d2 | c2A2G4 | c2A2G2BA | A8
A2c2d2ec | A8
c2c2E2G2 | A8
A2A4c2 | d4e2g2 | c2d2E2G2 | A8
A4A2c2 | E8
A2A2c2d2 | e4e4
c2d2e2g2 | e2d2c2A2 | dedcc2GB | A8
A4A2c2 | E4E2G2 | d2d2e2c2 | A4A4
c2d2e2g2 | e2d2c2A2 | c2A2G2BA | A8

